!!!OTL: Graserin und Reiter De' Ko'belenzer Medercher
!!!ARE: Europa, Mitteleuropa, Luxemburg
!!!YOR: 7, S. 150
!!    ????
!!!SCT: Q0149P
!!!YEM: Copyright 1995, estate of Helmut Schaffrath.
**kern
*ICvox
*Ivox
*M2/4
*k[f#]
*G:
{8d
=1
8g
8a
8b
8cc
=2
8dd
8dd
8dd}
{8dd
=3
8ee
8ff#
8gg
8ee
=4
4dd
8r}
{8dd
=5
8gg
8dd
8ee
8dd
=6
8b
8g
4g}
=7
{8a
16a
16b
8cc
16a
16a
=8
8b
8cc
8dd}
{8gg
=9
8ff#
8ee
8dd
8cc#
=10
4dd
8r}
{8dd
=11
8gg
8dd
8ee
8dd
=12
8b
8g
4g}
=13
{8a
16a
16b
8cc
16a
16a
=14
8b
8cc
8dd}
{8gg
=15
8ff#
8ee
8dd
8cc#
=16
4dd
8r}
==
!!!AGN: Ballade, Verfuehrung, Verlassen des Elternhauses
!! Modulation in die Dominanttonart.
!!    Vorletzte Zeile = Refrain auf sinnfreie Silben.
!!!ONB: ESAC (Essen Associative Code) Database: BALLADE
!!!AMT: simple duple
!!!AIN: vox
!!!EED: Helmut Schaffrath
!!!EEV: 1.0
*-
